X: 21624
T: Killavil Postman, The
R: barndance
M: 4/4
K: Gmajor
M:2/4
|:B/c/|dg ge|d/e/d/B/ G/E/D/E/|GG/G/ GA|B3 B/c/|
dg ge|d/e/d/B/ GB/d/|ea ab|a3 e/f/|
gb ge|d/e/d/B/ G/E/D/E/|GG/G/ GA|B4|
e>B c/B/A/z/|d>B/ c/B/A/z/|DG GA|G3:|
z|b>f g/f/e/z/|b>f g/f/e/z/|bb/b/ bc'|b4|
a>e f/e/d/z/|a> e f/e/d/z/|aa/a/ ab|f4|
b>f g/f/e/z/|b>f g/f/e/z/|bb/b/ bc'|b3 g/a/|
bb aa|gg f2|f/g/a/g/ f/g/a/g/|fe d||

